preferences/24/preferences-kde-connect.svg

<!-- Created with Inkscape (http://www.inkscape.org/) -->
<svg xmlns:inkscape="http://www.inkscape.org/namespaces/inkscape" xmlns:sodipodi="http://sodipodi.sourceforge.net/DTD/sodipodi-0.dtd" xmlns:xlink="http://www.w3.org/1999/xlink" xmlns="http://www.w3.org/2000/svg" xmlns:svg="http://www.w3.org/2000/svg" width="24" height="24" version="1.1" viewBox="0 0 24 24" id="svg22" sodipodi:docname="preferences-kde-connect.svg" inkscape:version="1.1.2 (0a00cf5339, 2022-02-04)">
  <sodipodi:namedview id="namedview24" pagecolor="#ffffff" bordercolor="#666666" borderopacity="1.0" inkscape:showpageshadow="2" inkscape:pageopacity="0.0" inkscape:pagecheckerboard="0" inkscape:deskcolor="#d1d1d1" showgrid="false" inkscape:zoom="25.62" inkscape:cx="-2.0296643" inkscape:cy="16.783763" inkscape:window-width="3440" inkscape:window-height="1356" inkscape:window-x="0" inkscape:window-y="0" inkscape:window-maximized="1" inkscape:current-layer="svg22" inkscape:pageshadow="2"/>
  <defs id="defs12">
    <linearGradient inkscape:collect="always" id="linearGradient917">
      <stop style="stop-color:#000000;stop-opacity:0.99607843" offset="0" id="stop913"/>
      <stop style="stop-color:#353a3f;stop-opacity:0.99607843" offset="1" id="stop915"/>
    </linearGradient>
    <linearGradient id="linearGradient1005-3-3" x1="5.2535" x2="9.3823996" y1="15.383" y2="2.9421" gradientTransform="matrix(0.99999,0,0,0.99999,1.632,-0.61743)" gradientUnits="userSpaceOnUse">
      <stop stop-color="#fa8200" offset="0" id="stop2"/>
      <stop stop-color="#ff9600" offset=".36953" id="stop4"/>
      <stop stop-color="#ffb400" offset="1" id="stop6"/>
    </linearGradient>
    <filter id="filter4014" x="-0.062499933" y="-0.057692993" width="1.1249999" height="1.115386" color-interpolation-filters="sRGB">
      <feGaussianBlur stdDeviation="1.093751" id="feGaussianBlur9"/>
    </filter>
    <linearGradient inkscape:collect="always" xlink:href="#linearGradient3487" id="linearGradient3403" gradientUnits="userSpaceOnUse" x1="6.9491749" y1="4.5549412" x2="11.215498" y2="59.052471"/>
    <linearGradient id="linearGradient3487">
      <stop style="stop-color:#32373c;stop-opacity:1" offset="0" id="stop3481"/>
      <stop id="stop3483" offset="0.36804965" style="stop-color:#1a1a1a;stop-opacity:1"/>
      <stop style="stop-color:#31363b;stop-opacity:1" offset="1" id="stop3485"/>
    </linearGradient>
    <linearGradient inkscape:collect="always" xlink:href="#linearGradient20604" id="linearGradient20558" gradientUnits="userSpaceOnUse" x1="25.802212" y1="20.373846" x2="25.111048" y2="58.912758"/>
    <linearGradient id="linearGradient20604">
      <stop id="stop20598" offset="0" style="stop-color:#3d3d3d;stop-opacity:1"/>
      <stop style="stop-color:#000000;stop-opacity:1" offset="0.61772454" id="stop20600"/>
      <stop id="stop20602" offset="1" style="stop-color:#3d3d3d;stop-opacity:1"/>
    </linearGradient>
    <filter inkscape:collect="always" style="color-interpolation-filters:sRGB" id="filter20720" x="-0.017024755" y="-0.016457183" width="1.0340491" height="1.0329144">
      <feGaussianBlur inkscape:collect="always" stdDeviation="0.14745661" id="feGaussianBlur20722"/>
    </filter>
    <linearGradient gradientTransform="translate(0.36067797,-0.13016949)" xlink:href="#linearGradient4555" id="linearGradient4557" x1="43.499737" y1="64.011795" x2="44.141731" y2="0.30621234" gradientUnits="userSpaceOnUse"/>
    <linearGradient id="linearGradient4555">
      <stop style="stop-color:#141618;stop-opacity:1" offset="0" id="stop4551"/>
      <stop id="stop4559" offset="0.51820582" style="stop-color:#686868;stop-opacity:1"/>
      <stop style="stop-color:#31363b;stop-opacity:1" offset="1" id="stop4553"/>
    </linearGradient>
    <filter style="color-interpolation-filters:sRGB" id="filter4601" x="-0.030244762" width="1.0604895" y="-0.030100647" height="1.0602013">
      <feGaussianBlur stdDeviation="0.014790289" id="feGaussianBlur4603"/>
    </filter>
    <linearGradient inkscape:collect="always" xlink:href="#linearGradient917" id="linearGradient919" x1="7.400631" y1="41.743092" x2="33.063145" y2="7.1074457" gradientUnits="userSpaceOnUse" gradientTransform="matrix(0.44048079,0,0,0.44048079,0.42370626,0.35398537)"/>
    <linearGradient inkscape:collect="always" xlink:href="#linearGradient4159" id="linearGradient4298" y1="545.79797" y2="517.79797" x2="0" gradientUnits="userSpaceOnUse"/>
    <linearGradient inkscape:collect="always" id="linearGradient4159">
      <stop style="stop-color:#2a2c2f" id="stop4161"/>
      <stop offset="1" style="stop-color:#424649" id="stop4163"/>
    </linearGradient>
    <linearGradient inkscape:collect="always" xlink:href="#linearGradient4227" id="linearGradient4173" y1="524.79797" x1="393.57144" y2="538.79797" x2="407.57147" gradientUnits="userSpaceOnUse" gradientTransform="translate(-384.57143,-515.798)"/>
    <linearGradient inkscape:collect="always" id="linearGradient4227">
      <stop style="stop-color:#292c2f" id="stop4229"/>
      <stop offset="1" style="stop-opacity:0" id="stop4231"/>
    </linearGradient>
    <linearGradient inkscape:collect="always" xlink:href="#linearGradient4303" id="linearGradient4381" y1="543.79797" y2="518.79797" x2="0" gradientUnits="userSpaceOnUse" gradientTransform="matrix(0.91304246,0,0,0.95652063,35.13704,23.600554)"/>
    <linearGradient inkscape:collect="always" id="linearGradient4303">
      <stop style="stop-color:#c6cdd1" id="stop4305"/>
      <stop offset="1" style="stop-color:#e0e5e7" id="stop4307"/>
    </linearGradient>
    <linearGradient inkscape:collect="always" xlink:href="#linearGradient4227" id="linearGradient4372" y1="14" x1="10" y2="25" x2="21" gradientUnits="userSpaceOnUse"/>
    <linearGradient inkscape:collect="always" xlink:href="#linearGradient4159" id="linearGradient4340" y1="20" y2="11" x2="0" gradientUnits="userSpaceOnUse" gradientTransform="translate(384.57143,516.798)"/>
    <linearGradient inkscape:collect="always" xlink:href="#linearGradient4159" id="linearGradient892" y1="20" y2="11" x2="0" gradientUnits="userSpaceOnUse" gradientTransform="translate(384.57143,516.798)"/>
    <linearGradient inkscape:collect="always" xlink:href="#linearGradient4159" id="linearGradient900" y1="20" y2="11" x2="0" gradientUnits="userSpaceOnUse" gradientTransform="translate(384.57143,516.798)"/>
    <linearGradient inkscape:collect="always" xlink:href="#linearGradient4159" id="linearGradient908" y1="20" y2="11" x2="0" gradientUnits="userSpaceOnUse" gradientTransform="translate(384.57143,516.798)"/>
    <linearGradient inkscape:collect="always" xlink:href="#linearGradient4159" id="linearGradient929" gradientUnits="userSpaceOnUse" gradientTransform="translate(384.57143,516.798)" y1="20" x2="0" y2="11"/>
    <linearGradient inkscape:collect="always" xlink:href="#linearGradient4159" id="linearGradient931" gradientUnits="userSpaceOnUse" gradientTransform="translate(384.57143,516.798)" y1="20" x2="0" y2="11"/>
    <linearGradient inkscape:collect="always" xlink:href="#linearGradient4159" id="linearGradient933" gradientUnits="userSpaceOnUse" gradientTransform="translate(384.57143,516.798)" y1="20" x2="0" y2="11"/>
  </defs>
  <g transform="translate(1,1)">
    <rect style="display:inline;fill:url(#linearGradient919);fill-opacity:1;fill-rule:evenodd;stroke:none;stroke-width:0.408687;stroke-linejoin:round;stroke-miterlimit:7.8" id="rect1192" width="18.537458" height="18.813864" x="1.8169075" y="1.6835722" ry="0" inkscape:label="arriere"/>
    <g id="g858" transform="matrix(0.66865372,0,0,0.66999484,-255.01915,-345.21578)">
      <rect width="15.999989" x="392.57144" y="517.79797" height="28" style="fill:url(#linearGradient4298)" id="rect4232"/>
      <path style="opacity:0.2;fill:url(#linearGradient4173);fill-rule:evenodd" id="path4164" d="M 23,5 9,27 12,30 H 24 V 6 Z" transform="translate(384.57143,515.798)"/>
      <rect width="15.999989" x="392.57144" y="544.79797" height="1" style="fill:#1c1e20" id="rect4180"/>
      <rect width="14" x="393.57144" y="520.79797" height="22" style="fill:url(#linearGradient4381)" id="rect4300"/>
      <rect width="6" x="397.57144" y="518.79797" height="1" style="fill:#212324" id="rect4607"/>
      <path style="opacity:0.2;fill:url(#linearGradient4372)" id="rect4345" d="m 14.853516,12.146484 -0.707032,0.707032 4.5,4.5 L 18,18 l 5,5 1,1 v -6 l -3,-3 -1.646484,1.646484 z m -1.146485,3.146485 -1.414062,1.414062 3,3 L 14.4375,20.5625 23.630859,29.753906 24,29.384766 v -3.507813 l -0.539062,-0.539062 0.146484,-0.146485 z" transform="translate(384.57143,515.798)"/>
      <path style="fill:url(#linearGradient929)" id="path4353" d="m 399.07143,527.798 c -0.27614,0 -0.5,0.22386 -0.5,0.5 0,0.27614 0.22386,0.5 0.5,0.5 0.27614,0 0.5,-0.22386 0.5,-0.5 0,-0.27614 -0.22386,-0.5 -0.5,-0.5 z"/>
      <path style="fill:url(#linearGradient931)" id="path4351" d="m 402.57143,527.798 -1,1 2,2 -2,2 1,1 2,-2 1,-1 -1,-1 z"/>
      <path style="fill:url(#linearGradient933)" id="path4349" d="m 397.57143,530.798 c -0.55228,0 -1,0.44772 -1,1 0,0.55228 0.44772,1 1,1 0.55228,0 1,-0.44772 1,-1 0,-0.55228 -0.44772,-1 -1,-1 z"/>
      <path style="fill:url(#linearGradient4340)" id="path4327" d="m 400.07143,533.798 c -0.82843,0 -1.5,0.67157 -1.5,1.5 0,0.82843 0.67157,1.5 1.5,1.5 0.82843,0 1.5,-0.67157 1.5,-1.5 0,-0.82843 -0.67157,-1.5 -1.5,-1.5 z"/>
    </g>
    <path style="display:inline;mix-blend-mode:normal;fill:url(#linearGradient3403);fill-opacity:1;stroke:url(#linearGradient20558);stroke-width:1.16242;stroke-linecap:butt;stroke-linejoin:round;stroke-miterlimit:4;stroke-dasharray:none;stroke-opacity:1;filter:url(#filter20720)" d="M 4.7043071,3.9814882 4.6913695,60.80196 H 58.59546 l 1.022155,-2.866369 c 0,0 -23.87537,0.766388 -32.844441,-4.140386 C 16.257548,48.042344 11.401114,4.0978197 11.401114,4.0978197 Z" id="path1686" sodipodi:nodetypes="ccccscc" transform="matrix(0.33118857,0,0,0.33118857,0.46762425,0.36494733)" inkscape:label="folder"/>
    <rect style="display:inline;fill:none;fill-opacity:1;stroke:url(#linearGradient4557);stroke-width:3.71366;stroke-linejoin:round;stroke-miterlimit:7.8;stroke-dasharray:none;stroke-opacity:0.995146;filter:url(#filter4601)" id="rect4539" width="62.567089" height="62.866646" x="1.0323594" y="0.59551275" ry="6.2447233" rx="5.8029528" transform="matrix(0.31025173,0,0,0.30961937,1.0240748,1.0341786)" inkscape:label="contour"/>
  </g>
</svg>

<svg width="24" height="24" version="1.1" viewBox="0 0 24 24" xmlns="http://www.w3.org/2000/svg" xmlns:xlink="http://www.w3.org/1999/xlink">
<defs>
<linearGradient id="linearGradient3403" x1="6.9492" x2="11.215" y1="4.5549" y2="59.052" gradientUnits="userSpaceOnUse">
<stop style="stop-color:#32373c" offset="0"/>
<stop style="stop-color:#1a1a1a" offset=".36805"/>
<stop style="stop-color:#31363b" offset="1"/>
</linearGradient>
<linearGradient id="linearGradient20558" x1="25.802" x2="25.111" y1="20.374" y2="58.913" gradientUnits="userSpaceOnUse">
<stop style="stop-color:#3d3d3d" offset="0"/>
<stop offset=".61772"/>
<stop style="stop-color:#3d3d3d" offset="1"/>
</linearGradient>
<linearGradient id="linearGradient4557" x1="43.5" x2="44.142" y1="64.012" y2=".30621" gradientTransform="translate(.36068 -.13017)" gradientUnits="userSpaceOnUse">
<stop style="stop-color:#141618" offset="0"/>
<stop style="stop-color:#686868" offset=".51821"/>
<stop style="stop-color:#31363b" offset="1"/>
</linearGradient>
<linearGradient id="linearGradient919" x1="7.4006" x2="33.063" y1="41.743" y2="7.1074" gradientTransform="matrix(.44048 0 0 .44048 .42371 .35399)" gradientUnits="userSpaceOnUse">
<stop style="stop-opacity:.99608" offset="0"/>
<stop style="stop-color:#353a3f;stop-opacity:.99608" offset="1"/>
</linearGradient>
<linearGradient id="linearGradient4298" x2="0" y1="545.8" y2="517.8" gradientUnits="userSpaceOnUse" xlink:href="#linearGradient4159"/>
<linearGradient id="linearGradient4159">
<stop style="stop-color:#2a2c2f" offset="0"/>
<stop style="stop-color:#424649" offset="1"/>
</linearGradient>
<linearGradient id="linearGradient4173" x1="393.57" x2="407.57" y1="524.8" y2="538.8" gradientTransform="translate(-384.57 -515.8)" gradientUnits="userSpaceOnUse" xlink:href="#linearGradient4227"/>
<linearGradient id="linearGradient4227">
<stop style="stop-color:#292c2f" offset="0"/>
<stop style="stop-opacity:0" offset="1"/>
</linearGradient>
<linearGradient id="linearGradient4381" x2="0" y1="543.8" y2="518.8" gradientTransform="matrix(.91304 0 0 .95652 35.137 23.601)" gradientUnits="userSpaceOnUse">
<stop style="stop-color:#c6cdd1" offset="0"/>
<stop style="stop-color:#e0e5e7" offset="1"/>
</linearGradient>
<linearGradient id="linearGradient4372" x1="10" x2="21" y1="14" y2="25" gradientUnits="userSpaceOnUse" xlink:href="#linearGradient4227"/>
<linearGradient id="linearGradient4340" x2="0" y1="20" y2="11" gradientTransform="translate(384.57 516.8)" gradientUnits="userSpaceOnUse" xlink:href="#linearGradient4159"/>
</defs>
<g transform="translate(1,1)">
<rect x="1.8169" y="1.6836" width="18.537" height="18.814" ry="0" style="fill-rule:evenodd;fill:url(#linearGradient919)"/>
<g transform="matrix(.66865 0 0 .66999 -255.02 -345.22)">
<rect x="392.57" y="517.8" width="16" height="28" style="fill:url(#linearGradient4298)"/>
<path transform="translate(384.57 515.8)" d="m23 5-14 22 3 3h12v-24z" style="fill-rule:evenodd;fill:url(#linearGradient4173);opacity:.2"/>
<rect x="392.57" y="544.8" width="16" height="1" style="fill:#1c1e20"/>
<rect x="393.57" y="520.8" width="14" height="22" style="fill:url(#linearGradient4381)"/>
<rect x="397.57" y="518.8" width="6" height="1" style="fill:#212324"/>
<path transform="translate(384.57 515.8)" d="m14.854 12.146-0.70703 0.70703 4.5 4.5-0.64648 0.64648 6 6v-6l-3-3-1.6465 1.6465zm-1.1465 3.1465-1.4141 1.4141 3 3-0.85547 0.85547 9.1934 9.1914 0.36914-0.36914v-3.5078l-0.53906-0.53906 0.14648-0.14648z" style="fill:url(#linearGradient4372);opacity:.2"/>
<path d="m399.07 527.8c-0.27614 0-0.5 0.22386-0.5 0.5s0.22386 0.5 0.5 0.5 0.5-0.22386 0.5-0.5-0.22386-0.5-0.5-0.5z" style="fill:url(#linearGradient4340)"/>
<path d="m402.57 527.8-1 1 2 2-2 2 1 1 3-3-1-1z" style="fill:url(#linearGradient4340)"/>
<path d="m397.57 530.8c-0.55228 0-1 0.44772-1 1s0.44772 1 1 1 1-0.44772 1-1-0.44772-1-1-1z" style="fill:url(#linearGradient4340)"/>
<path d="m400.07 533.8c-0.82843 0-1.5 0.67157-1.5 1.5s0.67157 1.5 1.5 1.5 1.5-0.67157 1.5-1.5-0.67157-1.5-1.5-1.5z" style="fill:url(#linearGradient4340)"/>
</g>
<path transform="matrix(.33119 0 0 .33119 .46762 .36495)" d="m4.7043 3.9815-0.012938 56.82h53.904l1.0222-2.8664s-23.875 0.76639-32.844-4.1404c-10.516-5.7529-15.372-49.697-15.372-49.697z" style="fill:url(#linearGradient3403);mix-blend-mode:normal;stroke-linejoin:round;stroke-width:1.1624;stroke:url(#linearGradient20558)"/>
<rect transform="matrix(.31025 0 0 .30962 1.0241 1.0342)" x="1.0324" y=".59551" width="62.567" height="62.867" rx="5.803" ry="6.2447" style="fill:none;stroke-linejoin:round;stroke-miterlimit:7.8;stroke-opacity:.99515;stroke-width:3.7137;stroke:url(#linearGradient4557)"/>
</g>
</svg>
